img/VK.svg

<svg width="40" height="23" viewBox="0 0 40 23" fill="none" xmlns="http://www.w3.org/2000/svg">
<path d="M39.0884 1.55969C39.3631 0.66125 39.0884 0 37.7666 0H33.3929C32.2791 0 31.7667 0.567812 31.492 1.20031C31.492 1.20031 29.2643 6.45437 26.1158 9.86125C25.0985 10.8459 24.6307 11.1622 24.0738 11.1622C23.7991 11.1622 23.3758 10.8459 23.3758 9.9475V1.55969C23.3758 0.481562 23.0639 0 22.1431 0H15.267C14.569 0 14.1532 0.503125 14.1532 0.970312C14.1532 1.99094 15.7274 2.22812 15.8908 5.10313V11.3419C15.8908 12.7075 15.6383 12.9591 15.0814 12.9591C13.5963 12.9591 9.98744 7.68344 7.84886 1.64594C7.41818 0.474375 6.99492 0 5.87365 0H1.49997C0.25247 0 0 0.567812 0 1.20031C0 2.32156 1.48512 7.89188 6.91324 15.2519C10.5295 20.2759 15.6235 23 20.257 23C23.0416 23 23.3832 22.3962 23.3832 21.3541C23.3832 16.5528 23.1308 16.1 24.5268 16.1C25.1728 16.1 26.2866 16.4163 28.8856 18.8384C31.8558 21.7134 32.3459 23 34.0093 23H38.3829C39.6304 23 40.2616 22.3962 39.8978 21.2031C39.0661 18.6947 33.4449 13.5341 33.1924 13.1891C32.5464 12.3841 32.7321 12.0247 33.1924 11.3059C33.1999 11.2987 38.5389 4.025 39.0884 1.55969Z" fill="#4C4C4C"/>
</svg>

<svg width="40" height="23" fill="none" xmlns="http://www.w3.org/2000/svg"><path d="M39.088 1.56c.275-.899 0-1.56-1.321-1.56h-4.374c-1.114 0-1.626.568-1.901 1.2 0 0-2.228 5.254-5.376 8.661-1.017.985-1.485 1.301-2.042 1.301-.275 0-.698-.316-.698-1.215V1.56c0-1.078-.312-1.56-1.233-1.56h-6.876c-.698 0-1.114.503-1.114.97 0 1.02 1.574 1.258 1.738 4.133v6.239c0 1.365-.253 1.617-.81 1.617-1.485 0-5.094-5.276-7.232-11.313C7.419.474 6.995 0 5.874 0H1.5C.252 0 0 .568 0 1.2c0 1.122 1.485 6.692 6.913 14.052C10.53 20.276 15.623 23 20.257 23c2.785 0 3.126-.604 3.126-1.646 0-4.801-.252-5.254 1.144-5.254.646 0 1.76.316 4.359 2.738 2.97 2.875 3.46 4.162 5.123 4.162h4.374c1.247 0 1.879-.604 1.515-1.797-.832-2.508-6.453-7.669-6.706-8.014-.646-.805-.46-1.164 0-1.883.008-.007 5.347-7.281 5.896-9.746z" fill="#4C4C4C"/></svg>
